X:56
T:Camptown Races
C:Stephen Foster
M:2/4
L:1/8
K:G
%%MIDI channel 1
%%MIDI program 72
%%MIDI transpose 8
%%MIDI grace 1/8
%%MIDI ratio 3 1
d|dd Bd|ed B2|B A3|B A2 z/d/|dd Bd|ed B2|A2 BA|G3::
z|G>G Bd|g4|e>e ge|d3 B/c/|dd Bd|ed B4|AB/c/ BA/A/|G3:|
%%%newpage
